X: 3020
T: The Ann.
%R: minuet, waltz
B: Henry Playford "Apollo's Banquet", London 1687 (5th Edition)
F: https://archive.org/details/apollosbanquetco01rugg
Z: 2017 John Chambers <jc:trillian.mit.edu>
M: 3/4
L: 1/8
K: Dm
% - - - - - - - - - -
|:\
f2 e3 d | ^c3 =B A2 | d2 e3 f | f4 e2 |\
f3 g ab | g2 c2 f2 | fg g3 f | f6 ::\
e2 A2 d2 | ^c3 d e2 | fe d3 c | B4 A2 |
f3 e fd | g2 e2 f2 | ed d3 ^c | d6 ::\
[M:C|] a2 |\
f2d2 e2^c2 | d4 e3d/e/ | f2c2 d2cB | A3G F2A2 |\
B2A2 d2e2 | ^c3d (d3^c/d/) |
e2f2 f3e | e6 :: e2 |\
f2g2 a2b2 | g3f e2c2 | f2ef d2cd | B4 A2!segno!yA2 |\
=B2^c2 d2e2 | ^c3d efga | f3e e3d | Hd6 |]
% - - - - - - - - - -

%%sep 1 1 500
%%sep 1 1 500

